build/image/tailwind/logo.svg

<?xml version="1.0" encoding="UTF-8"?>
<svg width="256px" height="154px" viewBox="0 0 256 154" version="1.1" xmlns="http://www.w3.org/2000/svg" xmlns:xlink="http://www.w3.org/1999/xlink" preserveAspectRatio="xMidYMid">
    <defs>
        <linearGradient x1="-2.77777778%" y1="32%" x2="100%" y2="67.5555556%" id="linearGradient-1">
            <stop stop-color="#2298BD" offset="0%"></stop>
            <stop stop-color="#0ED7B5" offset="100%"></stop>
        </linearGradient>
    </defs>
    <g>
        <path d="M128,-1.0658141e-14 C93.8666667,-1.0658141e-14 72.5333333,17.0666667 64,51.2 C76.8,34.1333333 91.7333333,27.7333333 108.8,32 C118.537481,34.4343704 125.497363,41.4985481 133.201067,49.3184 C145.750756,62.0567704 160.275437,76.8 192,76.8 C226.133333,76.8 247.466667,59.7333333 256,25.6 C243.2,42.6666667 228.266667,49.0666667 211.2,44.8 C201.462519,42.3656296 194.502637,35.3014519 186.798933,27.4816 C174.249244,14.7432296 159.724563,-1.0658141e-14 128,-1.0658141e-14 Z M64,76.8 C29.8666667,76.8 8.53333333,93.8666667 0,128 C12.8,110.933333 27.7333333,104.533333 44.8,108.8 C54.5374815,111.23437 61.497363,118.298548 69.2010667,126.1184 C81.7507556,138.85677 96.275437,153.6 128,153.6 C162.133333,153.6 183.466667,136.533333 192,102.4 C179.2,119.466667 164.266667,125.866667 147.2,121.6 C137.462519,119.16563 130.502637,112.101452 122.798933,104.2816 C110.249244,91.5432296 95.724563,76.8 64,76.8 Z" fill="url(#linearGradient-1)"></path>
    </g>
</svg>

<svg width="256" height="154" xmlns="http://www.w3.org/2000/svg" preserveAspectRatio="xMidYMid"><defs><linearGradient x1="-2.778%" y1="32%" x2="100%" y2="67.556%" id="a"><stop stop-color="#2298BD" offset="0%"/><stop stop-color="#0ED7B5" offset="100%"/></linearGradient></defs><path d="M128 0C93.867 0 72.533 17.067 64 51.2 76.8 34.133 91.733 27.733 108.8 32c9.737 2.434 16.697 9.499 24.401 17.318C145.751 62.057 160.275 76.8 192 76.8c34.133 0 55.467-17.067 64-51.2-12.8 17.067-27.733 23.467-44.8 19.2-9.737-2.434-16.697-9.499-24.401-17.318C174.249 14.743 159.725 0 128 0zM64 76.8C29.867 76.8 8.533 93.867 0 128c12.8-17.067 27.733-23.467 44.8-19.2 9.737 2.434 16.697 9.499 24.401 17.318C81.751 138.857 96.275 153.6 128 153.6c34.133 0 55.467-17.067 64-51.2-12.8 17.067-27.733 23.467-44.8 19.2-9.737-2.434-16.697-9.499-24.401-17.318C110.249 91.543 95.725 76.8 64 76.8z" fill="url(#a)"/></svg>
